svg/24/view-off.svg

<svg width="24" height="24" viewBox="0 0 24 24" fill="currentColor" xmlns="http://www.w3.org/2000/svg"><path fill-rule="evenodd" clip-rule="evenodd" d="M2.21967 21.7803C1.92678 21.4874 1.92678 21.0126 2.21967 20.7197L20.7197 2.21967C21.0126 1.92678 21.4874 1.92678 21.7803 2.21967C22.0732 2.51256 22.0732 2.98744 21.7803 3.28033L17.9828 7.07789C19.8077 8.42452 21.068 10.1096 21.7235 11.118C22.0754 11.6594 22.0754 12.3406 21.7235 12.882C20.5006 14.7634 17.1724 19 12 19C10.2118 19 8.64399 18.4936 7.30742 17.7532L3.28033 21.7803C2.98744 22.0732 2.51256 22.0732 2.21967 21.7803ZM8.4196 16.6411L9.75179 15.3089C10.3925 15.745 11.1665 16 12 16C14.2092 16 16 14.2091 16 12C16 11.1665 15.7451 10.3925 15.3089 9.75177L16.9081 8.15254C18.5948 9.34235 19.8005 10.9119 20.4658 11.9355C20.4835 11.9626 20.4874 11.9843 20.4874 12C20.4874 12.0157 20.4835 12.0374 20.4658 12.0645C19.2712 13.9023 16.3349 17.5 12 17.5C10.672 17.5 9.47523 17.1623 8.4196 16.6411ZM14.2171 10.8436C14.3978 11.1894 14.5 11.5828 14.5 12C14.5 13.3807 13.3807 14.5 12 14.5C11.5828 14.5 11.1894 14.3978 10.8436 14.217L14.2171 10.8436Z"/><path d="M2.27658 12.882C2.78283 13.6609 3.64986 14.8433 4.85917 15.9618L5.9204 14.9005C4.83735 13.9086 4.03361 12.8328 3.53424 12.0645C3.51657 12.0374 3.51263 12.0157 3.51263 12C3.51263 11.9843 3.51657 11.9626 3.53424 11.9355C4.7288 10.0977 7.66514 6.5 12 6.5C12.7215 6.5 13.4042 6.59966 14.0467 6.77428L15.2407 5.58019C14.258 5.21927 13.1767 5 12 5C6.82759 5 3.49949 9.23662 2.27658 11.118C1.92465 11.6594 1.92465 12.3406 2.27658 12.882Z"/><path d="M8.00002 12C8.00002 12.2566 8.02417 12.5075 8.07033 12.7506L9.63585 11.1851C9.88576 10.4599 10.4599 9.88574 11.1851 9.63583L12.7506 8.07031C12.5075 8.02415 12.2566 8 12 8C9.79088 8 8.00002 9.79086 8.00002 12Z"/></svg>

<svg xmlns="http://www.w3.org/2000/svg" width="24" height="24" fill="currentColor" viewBox="0 0 24 24">
  <path fill-rule="evenodd" d="M2.22 21.78a.75.75 0 0 1 0-1.06l18.5-18.5a.75.75 0 1 1 1.06 1.06l-3.797 3.798c1.825 1.347 3.085 3.032 3.74 4.04a1.606 1.606 0 0 1 0 1.764C20.502 14.763 17.174 19 12 19c-1.788 0-3.356-.506-4.693-1.247L3.28 21.78a.75.75 0 0 1-1.06 0Zm6.2-5.139 1.332-1.332a4 4 0 0 0 5.557-5.557l1.6-1.6c1.686 1.19 2.892 2.76 3.557 3.784a.116.116 0 0 1 .021.064.116.116 0 0 1-.021.065C19.27 13.902 16.335 17.5 12 17.5c-1.328 0-2.525-.338-3.58-.859Zm5.797-5.797a2.5 2.5 0 0 1-3.373 3.373l3.373-3.373Z" clip-rule="evenodd"/>
  <path d="M2.277 12.882a16.567 16.567 0 0 0 2.582 3.08L5.92 14.9a15.001 15.001 0 0 1-2.386-2.835.116.116 0 0 1-.021-.065c0-.016.004-.037.021-.065C4.73 10.098 7.665 6.5 12 6.5c.722 0 1.404.1 2.047.274L15.24 5.58A9.342 9.342 0 0 0 12 5c-5.172 0-8.5 4.237-9.723 6.118a1.606 1.606 0 0 0 0 1.764Z"/>
  <path d="M8 12c0 .257.024.508.07.75l1.566-1.565c.25-.725.824-1.3 1.55-1.55L12.75 8.07A4 4 0 0 0 8 12Z"/>
</svg>
